X:13
T:River Dee,The. WM.013
M:4/4
L:1/8
Q:1/2=100
S:Wm.Mittell’s MS, New Romney,Kent,1799
R:.Reel
O:England
A:Kent
Z:vmp.Chris Partington
K:G
G2dcB2AG|FGABA2D2|G2dcB2AG|FGABA4:|!
|:gabg efge|fgafd2d2|gabg efge|faced4:|!
|:d2cB caaa|c2BA Bggg|B2AG ABcA|BdFAG4:|
W:poss Csharp Bar 8,not clear in M.S.

